X:1
T:Ain't Misbehavin'
C:Fats Waller
M:4/4
L:1/8
Q:1/4=96
K:Eb
B2 | E3 E G2 A2 | B4 E4 | E3 E G2 A2 | B6 z2 | c2 B2 A2 G2 | G2 E2 F2 E2 | E3 E G2 A2 | E8 |]
